svg/free/mobile-landscape.svg

<svg version="1.1" xmlns="http://www.w3.org/2000/svg" width="24" height="24" viewBox="0 0 24 24">
<title>mobile-landscape</title>
<path d="M21.75 4.5h-19.5c-0.828 0.001-1.499 0.672-1.5 1.5v12c0.001 0.828 0.672 1.499 1.5 1.5h19.5c0.828-0.001 1.499-0.672 1.5-1.5v-12c-0.001-0.828-0.672-1.499-1.5-1.5h-0zM2.25 18v-12h2.25v12.001l-2.25 0zM6 6h12v12l-12 0.001zM21.75 18l-2.25 0v-12h2.25z"></path>
</svg>

<svg xmlns="http://www.w3.org/2000/svg" width="24" height="24" viewBox="0 0 24 24"><path d="M21.75 4.5H2.25A1.502 1.502 0 00.75 6v12a1.502 1.502 0 001.5 1.5h19.5a1.502 1.502 0 001.5-1.5V6a1.502 1.502 0 00-1.5-1.5zM2.25 18V6H4.5v12.001H2.25zM6 6h12v12l-12 .001zm15.75 12H19.5V6h2.25z"/></svg>
